assets/img/instagram-white.svg

<svg enable-background="new 0 0 512 512" height="512" viewBox="0 0 512 512" width="512" xmlns="http://www.w3.org/2000/svg"><g fill="#fff"><path d="m317.858 407.985h-123.716c-47.339 0-86.071-38.73-86.071-86.07v-131.829c0-47.34 38.732-86.071 86.071-86.071h123.717c47.34 0 86.072 38.731 86.072 86.071v131.829c0 47.34-38.733 86.07-86.073 86.07m0-22.742c16.82 0 32.697-6.614 44.705-18.623 12.01-12.008 18.622-27.885 18.622-44.705v-131.829c0-16.82-6.612-32.697-18.622-44.706-12.008-12.009-27.885-18.622-44.705-18.622h-123.716c-16.82 0-32.697 6.613-44.706 18.622s-18.621 27.886-18.621 44.706v131.829c0 16.82 6.612 32.697 18.621 44.705 12.009 12.009 27.886 18.623 44.706 18.623z"/><path d="m337.929 254.827c0 44.994-36.477 81.47-81.472 81.47-44.994 0-81.471-36.476-81.471-81.47 0-44.995 36.477-81.471 81.471-81.471 44.995 0 81.472 36.476 81.472 81.471m-81.864-53.283c-29.464 0-53.348 23.885-53.348 53.347 0 29.464 23.884 53.35 53.348 53.35s53.347-23.886 53.347-53.35c0-29.462-23.883-53.347-53.347-53.347"/><path d="m358.526 172.089c0 10.654-8.637 19.292-19.29 19.292-10.655 0-19.292-8.638-19.292-19.292 0-10.653 8.637-19.29 19.292-19.29 10.654 0 19.29 8.637 19.29 19.29"/></g></svg>

<?xml version="1.0" encoding="utf-8"?>
<!-- Generator: Adobe Illustrator 16.0.4, SVG Export Plug-In . SVG Version: 6.00 Build 0)  -->
<!DOCTYPE svg PUBLIC "-//W3C//DTD SVG 1.1//EN" "http://www.w3.org/Graphics/SVG/1.1/DTD/svg11.dtd">
<svg version="1.1" id="Layer_1" xmlns="http://www.w3.org/2000/svg" xmlns:xlink="http://www.w3.org/1999/xlink" x="0px" y="0px"
	 width="512px" height="512px" viewBox="0 0 512 512" enable-background="new 0 0 512 512" xml:space="preserve">
<g>
	<path fill="#FFFFFF" d="M317.858,407.985H194.142c-47.339,0-86.071-38.73-86.071-86.07V190.086
		c0-47.34,38.732-86.071,86.071-86.071h123.717c47.34,0,86.072,38.731,86.072,86.071v131.829
		C403.931,369.255,365.198,407.985,317.858,407.985 M317.858,385.243c16.82,0,32.697-6.614,44.705-18.623
		c12.01-12.008,18.622-27.885,18.622-44.705V190.086c0-16.82-6.612-32.697-18.622-44.706
		c-12.008-12.009-27.885-18.622-44.705-18.622H194.142c-16.82,0-32.697,6.613-44.706,18.622s-18.621,27.886-18.621,44.706v131.829
		c0,16.82,6.612,32.697,18.621,44.705c12.009,12.009,27.886,18.623,44.706,18.623H317.858z"/>
	<path fill="#FFFFFF" d="M337.929,254.827c0,44.994-36.477,81.47-81.472,81.47c-44.994,0-81.471-36.476-81.471-81.47
		c0-44.995,36.477-81.471,81.471-81.471C301.452,173.356,337.929,209.832,337.929,254.827 M256.065,201.544
		c-29.464,0-53.348,23.885-53.348,53.347c0,29.464,23.884,53.35,53.348,53.35s53.347-23.886,53.347-53.35
		C309.412,225.429,285.529,201.544,256.065,201.544"/>
	<path fill="#FFFFFF" d="M358.526,172.089c0,10.654-8.637,19.292-19.29,19.292c-10.655,0-19.292-8.638-19.292-19.292
		c0-10.653,8.637-19.29,19.292-19.29C349.89,152.799,358.526,161.436,358.526,172.089"/>
</g>
</svg>
